public/Check-In.svg

<svg width="50" height="50" viewBox="0 0 50 50" fill="none" xmlns="http://www.w3.org/2000/svg">
<path d="M25 0C11.1931 0 0 11.1931 0 25C0 38.8069 11.1931 50 25 50C38.8069 50 50 38.8069 50 25C50 11.1931 38.8069 0 25 0ZM25 38.3487C23.6475 37.2879 14.4095 29.8187 14.4095 21.9506C14.4095 16.1114 19.0971 11.3707 24.9141 11.2784V11.2742C24.943 11.2742 24.9715 11.2759 25 11.2759C25.0285 11.2759 25.057 11.2742 25.0859 11.2742V11.2784C30.903 11.3702 35.5904 16.1114 35.5904 21.9506C35.5904 29.8189 26.3525 37.2886 25 38.3487Z" fill="#14AEDE"/>
<path d="M30.5966 21.0333C30.5966 24.077 28.1296 26.5439 25.0859 26.5439C22.0427 26.5439 19.5753 24.077 19.5753 21.0333C19.5753 17.9901 22.0427 15.5227 25.0859 15.5227C28.1296 15.5227 30.5966 17.9901 30.5966 21.0333Z" fill="#14AEDE"/>
</svg>

<svg width="50" height="50" fill="none" xmlns="http://www.w3.org/2000/svg"><path d="M25 0C11.193 0 0 11.193 0 25s11.193 25 25 25 25-11.193 25-25S38.807 0 25 0zm0 38.349c-1.352-1.061-10.59-8.53-10.59-16.398 0-5.84 4.687-10.58 10.504-10.673v-.004l.086.002.086-.002v.004c5.817.092 10.504 4.833 10.504 10.673 0 7.868-9.238 15.338-10.59 16.398z" fill="#14AEDE"/><path d="M30.597 21.033a5.51 5.51 0 11-11.021 0 5.51 5.51 0 0111.02 0z" fill="#14AEDE"/></svg>
